dist/files/common/logo-light.svg

<svg width="231" height="78" viewBox="0 0 231 78" fill="none" xmlns="http://www.w3.org/2000/svg">
<path d="M94.2673 12.0822H88.4159V39.2904H82.9919V12.0822H77.1406V6.8291H94.2699V12.0822H94.2673Z" fill="#1F1F1F"/>
<path d="M102.212 6.82861V20.2404H108.32V6.82861H113.744V39.2926H108.32V25.4962H102.212V39.2926H96.7883V6.82861H102.212Z" fill="#1F1F1F"/>
<path d="M117.504 39.2899V6.82861H133.053V12.0817H122.928V20.155H130.446V25.4081H122.928V34.0368H133.053V39.2899H117.504Z" fill="#1F1F1F"/>
<path d="M171.71 39.2901H164.875L161.5 16.9932L158.127 39.2901H151.293L145.1 6.82617H150.609L154.626 30.2768L158.511 6.82617H164.491L168.377 30.2768L172.393 6.82617H177.903L171.71 39.2901Z" fill="#1F1F1F"/>
<path d="M189.266 32.2851H182.603L181.15 39.2901H175.598L183.287 6.82617H188.583L196.271 39.2901H190.719L189.266 32.2851ZM188.198 27.032L185.933 16.0959L183.669 27.032H188.195H188.198Z" fill="#1F1F1F"/>
<path d="M213.571 39.2899H198.664V6.82861H204.131V34.0368H213.571V39.2899Z" fill="#1F1F1F"/>
<path d="M231 39.2899H216.093V6.82861H221.56V34.0368H231V39.2899Z" fill="#1F1F1F"/>
<path d="M62.471 0H47.2752C46.3351 0 45.566 0.761124 45.566 1.70919V8.29492H41.3891V1.70919C41.3891 0.761124 40.628 0 39.68 0H24.4949C23.5468 0 22.7857 0.761124 22.7857 1.70919V8.29492H18.6088V1.70919C18.6088 0.761124 17.8397 0 16.8996 0H1.70919C0.769136 0 0 0.761124 0 1.70919V60.1662C0 60.8072 0.357862 61.3867 0.921361 61.6858L16.1065 69.6282L31.2916 77.5706C31.3076 77.5786 31.3183 77.5866 31.3343 77.5866C31.385 77.6133 31.4358 77.6374 31.4892 77.6561C31.5479 77.6828 31.6174 77.7068 31.6868 77.7148C31.7376 77.7308 31.799 77.7415 31.8577 77.7495C31.9352 77.7575 32.0126 77.7656 32.0874 77.7656C32.1622 77.7656 32.2423 77.7575 32.3171 77.7495C32.5147 77.7228 32.7016 77.6641 32.8806 77.5706L32.974 77.5199L48.0657 69.6282L63.2615 61.6858C63.825 61.3867 64.1748 60.8072 64.1748 60.1662V1.70919C64.1748 0.761124 63.4057 0 62.4656 0H62.471ZM60.7618 59.13L48.9844 65.2885V3.41571H60.7618V59.13ZM45.5687 67.0831L33.7993 73.2415V11.7106H45.5687V67.0831ZM3.41571 3.41571H15.1931V65.2885L3.41571 59.13V3.41571ZM30.3809 73.2415L18.6115 67.0831V11.7106H30.3809V73.2415ZM26.204 3.41571H37.9734V8.29225H26.204V3.41571Z" fill="#B72B00"/>
<path d="M9.30709 7.1333C8.00117 7.1333 6.9436 8.19086 6.9436 9.49679C6.9436 10.8027 8.00117 11.8603 9.30709 11.8603C10.613 11.8603 11.6706 10.8027 11.6706 9.49679C11.6706 8.19086 10.613 7.1333 9.30709 7.1333Z" fill="#B72B00"/>
<path d="M54.8757 11.8603C56.1816 11.8603 57.2392 10.8027 57.2392 9.49679C57.2392 8.19086 56.1816 7.1333 54.8757 7.1333C53.5698 7.1333 52.5122 8.19086 52.5122 9.49679C52.5122 10.8027 53.5698 11.8603 54.8757 11.8603Z" fill="#B72B00"/>
<path d="M24.4948 15.583C23.1889 15.583 22.1313 16.6406 22.1313 17.9465C22.1313 19.2524 23.1889 20.31 24.4948 20.31C25.8008 20.31 26.8583 19.2524 26.8583 17.9465C26.8583 16.6406 25.8008 15.583 24.4948 15.583Z" fill="#B72B00"/>
<path d="M39.6853 15.583C38.3793 15.583 37.3218 16.6406 37.3218 17.9465C37.3218 19.2524 38.3793 20.31 39.6853 20.31C40.9912 20.31 42.0488 19.2524 42.0488 17.9465C42.0488 16.6406 40.9912 15.583 39.6853 15.583Z" fill="#B72B00"/>
</svg>

<svg xmlns="http://www.w3.org/2000/svg" fill="none" viewBox="0 0 231 78"><path fill="#1f1f1f" d="M94.267 12.082h-5.851V39.29h-5.424V12.082H77.14V6.83H94.27v5.253zM102.212 6.829V20.24h6.108V6.83h5.424v32.464h-5.424V25.496h-6.108v13.797h-5.424V6.829zM117.504 39.29V6.829h15.549v5.253h-10.125v8.073h7.518v5.253h-7.518v8.629h10.125v5.253zM171.71 39.29h-6.835L161.5 16.993l-3.373 22.297h-6.834L145.1 6.826h5.509l4.017 23.45 3.885-23.45h5.98l3.886 23.45 4.016-23.45h5.51zM189.266 32.285h-6.663l-1.453 7.005h-5.552l7.689-32.464h5.296l7.688 32.464h-5.552zm-1.068-5.253-2.265-10.936-2.264 10.936h4.529M213.571 39.29h-14.907V6.829h5.467v27.208h9.44zM231 39.29h-14.907V6.829h5.467v27.208H231z"/><path fill="#b72b00" d="M62.471 0H47.275c-.94 0-1.709.761-1.709 1.71v6.585h-4.177V1.709C41.39.761 40.628 0 39.68 0H24.495c-.948 0-1.71.761-1.71 1.71v6.585H18.61V1.709c0-.948-.77-1.709-1.71-1.709H1.71C.77 0 0 .761 0 1.71v58.456c0 .641.358 1.22.921 1.52l15.186 7.942 15.185 7.943c.016.008.026.016.042.016q.076.04.155.07a.7.7 0 0 0 .198.058c.05.016.112.026.17.034.078.008.156.017.23.017s.155-.009.23-.017q.296-.039.564-.178l.093-.051 15.092-7.892 15.195-7.942c.564-.3.914-.879.914-1.52V1.71c0-.948-.77-1.709-1.71-1.709zm-1.71 59.13-11.777 6.158V3.416h11.778zM45.57 67.083l-11.77 6.159V11.71h11.77zM3.416 3.416h11.777v61.873L3.416 59.13zM30.38 73.242l-11.77-6.159V11.711h11.77zM26.204 3.416h11.77v4.876h-11.77z"/><path fill="#b72b00" d="M9.307 7.133a2.363 2.363 0 1 0 0 4.727 2.363 2.363 0 1 0 0-4.727M54.876 11.86a2.363 2.363 0 1 0 .001-4.725 2.363 2.363 0 0 0-.001 4.725M24.495 15.583a2.363 2.363 0 1 0-.002 4.726 2.363 2.363 0 0 0 .002-4.726M39.685 15.583a2.363 2.363 0 1 0 0 4.727 2.363 2.363 0 1 0 0-4.727"/></svg>
